X:1
T:Title
%%score { ( 1 4 ) | ( 2 3 ) }
L:1/8
Q:1/4=100
M:6/8
K:Bb
V:1 treble nm="Grand Piano"
V:4 treble 
V:2 bass 
V:3 bass 
V:1
 [B,DF]2 [B,DF] [B,DF][B,D][DF] | [DB]2 [EB] [DB]3 | [DF]2 [Fd] dc[FB] | [Fc]6 | %4
w: Mrs.~C.~H.~Morris * * * *||||
 [DF]2 [Fd] dc[_Ad] | [Ge]2 [Ge] G3 | A2 A FGA | [DB]6 | c2 c c=Bc | d2 c [DB]3 | ddd e2 d | c6 | %12
w: ||||||||
 [Fd]2 [Fd] c2 c |[M:15/16] B->BB z3/2 z/ _D-D3/2 |[M:3/4] F2 FA GA | [DB]6 |] %16
w: ||||
V:2
 B,,2 B,, z F,[B,,B,] | [B,,B,]2 [B,,G,] [B,,F,]3 | [B,,B,]2 [B,,B,] [B,,B,][C,A,][D,B,] | %3
 [F,A,]6 | [B,,B,]2 [B,,B,] [B,,B,]2 [B,,B,] | [E,B,]2 [E,B,] [E,B,E]3 | %6
 [F,E]2 [F,CE] [F,A,E][F,B,E][F,CE] | [B,,B,]6 | [F,A,F]2 [F,A,F] [F,A,F][F,_A,F][F,=A,F] | %9
 [F,B,F]2 [F,A,E] [B,,F,]3 | [B,F][B,F][B,F] [A,CF]2 [B,F] | [F,A,F]6 | %12
 [B,,B,]2 [B,,B,] [F,A,F]2 [F,A,F] |[M:15/16] [G,B,D]->[G,B,D][G,B,D]B,->B,-[=E,B,]-[E,B,]3/2 | %14
[M:3/4] [F,B,D]2 [F,B,D][F,E] [F,E][F,E] | [B,,F,]6 |] %16
V:3
 z3 .B,,3 | x6 | x6 | x6 | x6 | x6 | x6 | x6 | x6 | x6 | x6 | x6 | x6 | %13
[M:15/16] z3 [E,E]->[E,E] z z3/2 |[M:3/4] x6 | x6 |] %16
V:4
 x6 | x6 | z3 .F3 | x6 | z3 ._A3 | x6 | x6 | x6 | x6 | x6 | x6 | x6 | x6 |[M:15/16] z3 G3/2- G3 | %14
[M:3/4] x6 | x6 |] %16

